src/pos-icons/table-row-remove.svg

<svg height="24" viewBox="0 0 24 24" width="24" xmlns="http://www.w3.org/2000/svg"><path d="m9.41 13 2.59 2.59 2.59-2.59 1.41 1.41-2.59 2.59 2.59 2.59-1.41 1.41-2.59-2.59-2.59 2.59-1.41-1.41 2.59-2.59-2.59-2.59zm12.59-4a2 2 0 0 1 -2 2h-16a2 2 0 0 1 -2-2v-3a2 2 0 0 1 2-2h16a2 2 0 0 1 2 2zm-18 0h4v-3h-4zm6 0h4v-3h-4zm6 0h4v-3h-4z"/></svg>

<?xml version="1.0" encoding="UTF-8"?><!DOCTYPE svg PUBLIC "-//W3C//DTD SVG 1.1//EN" "http://www.w3.org/Graphics/SVG/1.1/DTD/svg11.dtd"><svg xmlns="http://www.w3.org/2000/svg" xmlns:xlink="http://www.w3.org/1999/xlink" version="1.1" id="mdi-table-row-remove" width="24" height="24" viewBox="0 0 24 24"><path d="M9.41,13L12,15.59L14.59,13L16,14.41L13.41,17L16,19.59L14.59,21L12,18.41L9.41,21L8,19.59L10.59,17L8,14.41L9.41,13M22,9A2,2 0 0,1 20,11H4A2,2 0 0,1 2,9V6A2,2 0 0,1 4,4H20A2,2 0 0,1 22,6V9M4,9H8V6H4V9M10,9H14V6H10V9M16,9H20V6H16V9Z" /></svg>
